icons/line/device-mobile.svg

<svg width="24" height="24" viewBox="0 0 24 24" fill="none" xmlns="http://www.w3.org/2000/svg">
<path d="M11 18L13 18M18 19L18 5C18 3.89543 17.1046 3 16 3L8 3C6.89543 3 6 3.89543 6 5L6 19C6 20.1046 6.89543 21 8 21L16 21C17.1046 21 18 20.1046 18 19Z" stroke="currentColor" stroke-width="2" stroke-linecap="round" stroke-linejoin="round"/>
</svg>

<svg width="24" height="24" fill="none" xmlns="http://www.w3.org/2000/svg"><path d="M11 18h2m5 1V5a2 2 0 00-2-2H8a2 2 0 00-2 2v14a2 2 0 002 2h8a2 2 0 002-2z" stroke="currentColor" stroke-width="2" stroke-linecap="round" stroke-linejoin="round"/></svg>
